storage/app/icons/phosphoricons/light/folder-simple-light.svg

<svg xmlns="http://www.w3.org/2000/svg" fill="currentColor" viewBox="0 0 256 256"><path d="M216 74h-86l-28.27-21.2a14 14 0 0 0-8.4-2.8H40a14 14 0 0 0-14 14v136a14 14 0 0 0 14 14h176.89A13.12 13.12 0 0 0 230 200.89V88a14 14 0 0 0-14-14m2 126.89a1.11 1.11 0 0 1-1.11 1.11H40a2 2 0 0 1-2-2V64a2 2 0 0 1 2-2h53.33a2 2 0 0 1 1.2.4l29.87 22.4A6 6 0 0 0 128 86h88a2 2 0 0 1 2 2Z"/></svg>

<svg xmlns="http://www.w3.org/2000/svg" viewBox="0 0 256 256" fill="currentColor"><path d="M216,74H130L101.73,52.8a14,14,0,0,0-8.4-2.8H40A14,14,0,0,0,26,64V200a14,14,0,0,0,14,14H216.89A13.12,13.12,0,0,0,230,200.89V88A14,14,0,0,0,216,74Zm2,126.89a1.11,1.11,0,0,1-1.11,1.11H40a2,2,0,0,1-2-2V64a2,2,0,0,1,2-2H93.33a2,2,0,0,1,1.2.4L124.4,84.8A6,6,0,0,0,128,86h88a2,2,0,0,1,2,2Z"/></svg>
